X:1
T:By Simple Faith
T:By Simple Faith
T:Thomas Ervin
T:Edgar Page Stites, 1881
T:Public Domain Courtesy of the Cyber Hymnal™
C:Thomas Ervin
Z:Public Domain
Z:Courtesy of the Cyber Hymnal™
%%score ( 1 2 ) ( 3 4 )
L:1/8
Q:1/4=93
M:6/8
K:G
V:1 treble 
V:2 treble 
V:3 bass 
V:4 bass 
V:1
 [B,D] | ([B,D][DG])[DA] [DB]2 [DG] | (AG)[CE] [CG]2 [DG] | [DA]2 [DA] (GA)[=CB] | %4
w: 1.~’Tis|sim- * ple faith that|breaks * the power And|sets us free * from|
w: 2.~Just|sim- * ple faith in|Christ * will save The|hum- blest trem- * bling|
w: 3.~By|sim- * ple faith we|bring * to Him, Not|won- drous words * of|
w: 4.~Thus|sim- * ple faith and|per- * fect love Shall|lift my soul * so|
 [DA]3- [DA]2 [CD] | ([B,D][DG])[DA] [DB]2 [DE] | ([CE][EA])[EB] [Ec]2 [EA] | %7
w: sin, * ’Tis|sim- * ple faith un-|locks * the gate Of|
w: soul; * There’s|none * so poor, and|none * so sick, But|
w: prayer, * But|hum- * bly bring a|con- * trite heart, And|
w: high, * ’Twill|give * a crown the|stars * a- bove, A|
 [Dd]2 [DG] [DB]2 [DA] | [DG]3- [DG]2 z ||"^Refrain" [Gd]>[Gd][Gd] (ed)[GB] | %10
w: Heav’n and lets us|in. *||
w: He will make them|whole. *||
w: trust, and leave it|there. *||
w: home be- yond the|sky. *||
 [EG]>[EG][EG] (AG)[CE] | [B,D][DG][DA] [DB]>[Dc][DB] | (A3 d3) | [Gd]>[Gd][Gd] (ed)[GB] | %14
w: ||||
w: ||||
w: ||||
w: ||||
 G[FA][=FB] [Ec] !fermata![Ge]2 | [Gd]>[Gd][Gd] [Fd]>[Fc][FA] | G3- G2 |] %17
w: |||
w: |||
w: |||
w: |||
V:2
 x | x6 | C2 x4 | x3 ^C2 x | x6 | x6 | x6 | x6 | x6 || x3 G2 x | x3 E2 x | x6 | F6 | x3 G2 x | %14
 G x5 | x6 | G3- G2 |] %17
V:3
 [G,,G,] | G,2 [D,F,] G,2 [B,,G,] | [C,E,]2 [C,G,] [C,E,]2 [B,,G,] | %3
w: |1.~Ful- * ly *||
 [A,,F,]2 [A,,F,] (E,F,)[A,,G,] | [D,F,]3- [D,F,]2 [D,F,] | G,2 [D,F,] =G,2 [B,,^G,] | %6
w: ||be- * liev- *|
 A,2 [E,^G,] A,2 [C,F,] | [B,,G,]2 [D,B,] [D,D]2 [D,C] | [G,,G,B,]3- [G,,G,B,]2 z || %9
w: ing, * al- *|||
 [G,B,]>[G,B,][G,B,] (CB,)[G,,G,] | [C,G,]>[C,G,][C,G,] [C,C]2 [C,G,] | %11
w: ways re- ceiv- ing, * Bless-|ing we ask of the|
 [D,G,][D,G,][D,F,] [D,G,]>[D,A,][D,G,] | [D,A,]6 | [G,B,]>[G,B,][G,B,] (CB,)[G,D] | %14
w: Lord; Gifts with- out mea- sure,|Poured|from His trea- sure— * An-|
 [G,B,][G,C][G,D] [C,E] !fermata![C,E]2 | [D,B,]>[D,B,][D,B,] [D,A,]>[D,D][D,C] | %16
w: swers to faith in His|word. * * * * *|
 [G,,G,B,]3- [G,,G,B,]2 |] %17
w: |
V:4
 x | (G,,B,,) G,2 x2 | x6 | x3 A,,2 x | x6 | (^G,,B,,) ^G,2 x2 | (A,,B,,) A,2 x2 | x6 | x6 || %9
 x3 G,2 x | x6 | x6 | x6 | x3 G,2 x | x6 | x6 | x5 |] %17

